**harm	**harte	**kern	**silbe	**kern	**silbe	**kern	**silbe	**rhyme	**timestamp	**phrase	**leadinstrument
*M4/4	*M4/4	*ICvox	*	*ICvox	*	*ICvox	*	*	*	*	*
*	*	*VRlead	*	*VRharmonize	*	*VRharmonize*VRbacking	*	*	*	*	*
*	*	*Hstimme	*	*Nstimme	*	*Nstimme	*	*	*	*	*
*E-:	*E-:	*E-:	*	*E-:	*	*E-:	*	*	*	*	*
*	*	*M4/4	*	*M4/4	*	*M4/4	*	*	*	*	*
*	*	*clefC3	*	*clefF4	*	*clefG2	*	*	*	*	*
1r;	N	2r	.	2r	.	1r	.	.	0	.	r
.	.	8r	.	8r	.	.	.	.	.	.	.
.	.	4b-	It's	4E- 4B- 4e-	It's	.	.	.	.	.	.
.	.	8b-	the	8E- 8B- 8e-	the	.	.	.	.	.	.
=1	=1	=1	=1	=1	=1	=1	=1	=1	=1	=1	=1
*>Letter>A	*>Letter>A	*>Letter>A	*>Letter>A	*>Letter>A	*>Letter>A	*>Letter>A	*>Letter>A	*>Letter>A	*>Letter>A	*>Letter>A	*>Letter>A
*>Label>Intro	*>Label>Intro	*>Label>Intro	*>Label>Intro	*>Label>Intro	*>Label>Intro	*>Label>Intro	*>Label>Intro	*>Label>Intro	*>Label>Intro	*>Label>Intro	*>Label>Intro
1-III	N	8b-	lit-	8G- 8B- 8d-	lit-	1r	.	.	0.438	newline	voice
.	.	8b-	-tle	8G- 8B- 8d-	-tle	.	.	.	.	.	.
.	.	4b-	old	4F 4A- 4d-	old	.	.	.	.	.	.
.	.	8b-	la-	8E- 8G- 8d-	la-	.	.	.	.	.	.
.	.	8b-	-dy	8E- 8G- 8d-	-dy	.	.	.	.	.	.
.	.	4b-	from	4D- 4G- 4d-	from	.	.	.	.	.	.
=2	=2	=2	=2	=2	=2	=2	=2	=2	=2	=2	=2
1V	N	6b-	Pa-	6BB- 6F 6d	Pa-	1r	.	.	2.722	.	voice
.	.	6b-	-sa-	6BB- 6F 6d	-sa-	.	.	.	.	.	.
.	.	8b-q	_	8BB-q 8Fq 8dq	_	.	.	.	.	.	.
.	.	[6cc	-de	[6C [6G [6e-	-de	.	.	.	.	.	.
.	.	8cc]	_	8C] 8G] 8e-]	_	.	.	.	.	.	.
.	.	[4.b-	na	[4.BB- [4.F [4.d	na	.	.	.	.	.	.
=3	=3	=3	=3	=3	=3	=3	=3	=3	=3	=3	=3
1V	B-:maj	1b-_	_	1BB-_ 1F_ 1d_	_	1r	.	.	4.384	.	voice
=4	=4	=4	=4	=4	=4	=4	=4	=4	=4	=4	=4
1V	B-:maj	2b-]	_	2BB-] 2F] 2d]	_	1r	.	.	6.045	.	voice
.	.	4r	.	2r	.	.	.	.	.	.	.
.	.	8r	.	.	.	.	.	.	.	.	.
.	.	8F	The	.	.	.	.	.	.	.	.
=5	=5	=5	=5	=5	=5	=5	=5	=5	=5	=5	=5
*>Letter>B	*>Letter>B	*>Letter>B	*>Letter>B	*>Letter>B	*>Letter>B	*>Letter>B	*>Letter>B	*>Letter>B	*>Letter>B	*>Letter>B	*>Letter>B
*>Label>Verse	*>Label>Verse	*>Label>Verse	*>Label>Verse	*>Label>Verse	*>Label>Verse	*>Label>Verse	*>Label>Verse	*>Label>Verse	*>Label>Verse	*>Label>Verse	*>Label>Verse
1I	E-:maj	8E-	lit-	1r	.	1r	.	.	7.706	newline	voice
.	.	8E-	-tle	.	.	.	.	.	.	.	.
.	.	4F	old	.	.	.	.	.	.	.	.
.	.	8G	la-	.	.	.	.	.	.	.	.
.	.	8G	-dy	.	.	.	.	.	.	.	.
.	.	4B-	from	.	.	.	.	.	.	.	.
=6	=6	=6	=6	=6	=6	=6	=6	=6	=6	=6	=6
1I	E-:maj	6d-	Pa-	1r	.	1r	.	.	9.365	.	voice
.	.	6c	-sa-	.	.	.	.	.	.	.	.
.	.	[6G	-de	.	.	.	.	(A	.	.	.
.	.	8G]	_	.	.	.	.	.	.	.	.
.	.	4.B-	na!	.	.	.	.	a)	.	.	.
=7	=7	=7	=7	=7	=7	=7	=7	=7	=7	=7	=7
1I	E-:maj	1r	.	4E- 4G 4B-	Go,	1r	.	.	11.024	.	voice
.	.	.	.	8E- 8G 8B-	gran-	.	.	.	.	.	.
.	.	.	.	8E- 8G 8B-	-ny,	.	.	.	.	.	.
.	.	.	.	4E- 4G 4B-	go,	.	.	.	.	.	.
.	.	.	.	8E- 8G 8B-	gran-	.	.	.	.	.	.
.	.	.	.	8E- 8G 8B-	-ny,	.	.	.	.	.	.
=8	=8	=8	=8	=8	=8	=8	=8	=8	=8	=8	=8
4.IV	A-:maj	2r	.	8E- 8A- 8c	go	1r	.	.	12.682	.	voice
.	.	.	.	8E- 8A- 8c	gran-	.	.	.	.	.	.
.	.	.	.	8E- 8A- 8c	-ny	.	.	.	.	.	.
8%5I	E-:maj	.	.	[8E- [8G [8B-	go	.	.	.	13.512	.	voice
.	.	8r	.	8E-] 8G] 8B-]	_	.	.	.	.	.	.
.	.	4G	Has	8r	.	.	.	.	.	.	.
.	.	.	.	4r	.	.	.	.	.	.	.
.	.	8F	a	.	.	.	.	.	.	.	.
=9	=9	=9	=9	=9	=9	=9	=9	=9	=9	=9	=9
1I	E-:maj	8E-	pret-	1r	.	1r	.	.	14.341	newline	voice
.	.	8E-	-ty	.	.	.	.	.	.	.	.
.	.	8F	lit-	.	.	.	.	.	.	.	.
.	.	8F	-tle	.	.	.	.	.	.	.	.
.	.	8G	flo-	.	.	.	.	.	.	.	.
.	.	8G	-wer-	.	.	.	.	.	.	.	.
.	.	8B-	-bed	.	.	.	.	.	.	.	.
.	.	8B-	of	.	.	.	.	.	.	.	.
=10	=10	=10	=10	=10	=10	=10	=10	=10	=10	=10	=10
1I	E-:maj	8d-	white	1r	.	1r	.	.	15.989	.	voice
.	.	4c	gar-	.	.	.	.	.	.	.	.
.	.	[8G	-den-	.	.	.	.	(A	.	.	.
.	.	8G]	_	.	.	.	.	.	.	.	.
.	.	[4.B-	-ias	.	.	.	.	a)	.	.	.
=11	=11	=11	=11	=11	=11	=11	=11	=11	=11	=11	=11
1V7	B-:7	4B-]	_	4D 4F 4B-	Go,	1r	.	.	17.637	.	voice
.	.	4r	.	8D 8F 8B-	gran-	.	.	.	.	.	.
.	.	.	.	8D 8F 8B-	-ny,	.	.	.	.	.	.
.	.	2r	.	4D 4F 4B-	go,	.	.	.	.	.	.
.	.	.	.	8D 8F 8B-	gran-	.	.	.	.	.	.
.	.	.	.	8D 8F 8B-	-ny,	.	.	.	.	.	.
=12	=12	=12	=12	=12	=12	=12	=12	=12	=12	=12	=12
4.II	F:maj	2r	.	8C 8F 8A	go	1r	.	.	19.285	.	voice
.	.	.	.	8C 8F 8A	gran-	.	.	.	.	.	.
.	.	.	.	8C 8F 8A	-ny	.	.	.	.	.	.
8%5V7	B-:7	.	.	[8BB- [8F [8B-	go	.	.	.	20.109	.	voice
.	.	4r	.	8BB-] 8F] 8B-]	_	.	.	.	.	.	.
.	.	.	.	8r	.	.	.	.	.	.	.
.	.	8r	.	4r	.	.	.	.	.	.	.
.	.	8~F	But	.	.	.	.	.	.	.	.
=13	=13	=13	=13	=13	=13	=13	=13	=13	=13	=13	=13
1I	E-:maj	4B-	parked	1r	.	1r	.	.	20.933	newline	voice
.	.	8B-	in	.	.	.	.	.	.	.	.
.	.	8B-	a	.	.	.	.	.	.	.	.
.	.	8e-	ric-	.	.	.	.	.	.	.	.
.	.	8d	-ke-	.	.	.	.	.	.	.	.
.	.	8d	-ty	.	.	.	.	.	.	.	.
.	.	[8c	old	.	.	.	.	.	.	.	.
=14	=14	=14	=14	=14	=14	=14	=14	=14	=14	=14	=14
1IV	A-:maj	4c]	_	1r	.	1r	.	.	22.585	.	voice
.	.	8A-	ga-	.	.	.	.	.	.	.	.
.	.	[8A-	-rage,	.	.	.	.	B	.	.	.
.	.	8A-]	_	.	.	.	.	.	.	.	.
.	.	4A-	is	.	.	.	.	.	.	.	.
.	.	8A-	a	.	.	.	.	.	.	.	.
=15	=15	=15	=15	=15	=15	=15	=15	=15	=15	=15	=15
2II	F:maj	4c	brand	4A- 4f	brand	1r	.	.	24.237	.	voice
.	.	4c	new	4A- 4f	new	.	.	.	.	.	.
2-VII	D-:maj	8d-	shi-	8A- 8e-	shi-	.	.	.	25.063	.	voice
.	.	8d-	-ny	8A- 8e-	-ny	.	.	.	.	.	.
.	.	4d-	red	4A- 4e-	red	.	.	.	.	.	.
=16	=16	=16	=16	=16	=16	=16	=16	=16	=16	=16	=16
1V7	B-:7	8B-	su-	8F 8d	su-	1r	.	.	25.889	.	voice
.	.	8B-	-per	8F 8d	-per	.	.	.	.	.	.
.	.	4c	Stock	4F 4e-	Stock	.	.	.	.	.	.
.	.	[2B-	Dodge	[2F [2d	Dodge	.	.	B	.	.	.
=17	=17	=17	=17	=17	=17	=17	=17	=17	=17	=17	=17
1V7	B-:7	2B-]	_	2F] 2d]	_	2r	.	.	27.541	.	voice
*	*	*clefF4	*	*	*	*	*	*	*	*	*
.	.	4r	.	2r	.	4r	.	.	.	.	.
.	.	8r	.	.	.	4B-	Ooh	.	.	.	.
.	.	8BB-	And	.	.	.	.	.	.	.	.
=18	=18	=18	=18	=18	=18	=18	=18	=18	=18	=18	=18
*>Letter>A	*>Letter>A	*>Letter>A	*>Letter>A	*>Letter>A	*>Letter>A	*>Letter>A	*>Letter>A	*>Letter>A	*>Letter>A	*>Letter>A	*>Letter>A
*>Label>Chorus	*>Label>Chorus	*>Label>Chorus	*>Label>Chorus	*>Label>Chorus	*>Label>Chorus	*>Label>Chorus	*>Label>Chorus	*>Label>Chorus	*>Label>Chorus	*>Label>Chorus	*>Label>Chorus
1I	E-:maj	8E-	ev-	1r	.	[1b-	_	.	29.193	newline	voice
.	.	8E-	-'ry-	.	.	.	.	.	.	.	.
.	.	8C	-bo-	.	.	.	.	.	.	.	.
.	.	8BB-	-dy's	.	.	.	.	.	.	.	.
.	.	8E-	sa-	.	.	.	.	.	.	.	.
.	.	8E-	-yin'	.	.	.	.	.	.	.	.
.	.	8C	that	.	.	.	.	.	.	.	.
.	.	8BB-	there's	.	.	.	.	.	.	.	.
=19	=19	=19	=19	=19	=19	=19	=19	=19	=19	=19	=19
1I	E-:maj	8G	no-	1r	.	4b-]	_	.	30.826	.	voice
.	.	8G	-bo-	.	.	.	.	.	.	.	.
.	.	8B-	-dy	.	.	4cc	_	.	.	.	.
.	.	8B-q	_	.	.	.	.	.	.	.	.
.	.	[8c	mea	.	.	.	.	(A	.	.	.
.	.	8c]	_	.	.	4b-	_	.	.	.	.
.	.	8B-	ner	.	.	.	.	a)	.	.	.
.	.	8G	than	.	.	4e-	_	.	.	.	.
.	.	8F	the	.	.	.	.	.	.	.	.
=20	=20	=20	=20	=20	=20	=20	=20	=20	=20	=20	=20
1I	E-:maj	8E-	lit-	1r	.	[1g	_	.	32.459	.	voice
.	.	8E-	-tle	.	.	.	.	.	.	.	.
.	.	8C	old	.	.	.	.	.	.	.	.
.	.	8BB-	_	.	.	.	.	.	.	.	.
.	.	8E-	la-	.	.	.	.	.	.	.	.
.	.	8E-	-dy	.	.	.	.	.	.	.	.
.	.	4F	from	.	.	.	.	.	.	.	.
=21	=21	=21	=21	=21	=21	=21	=21	=21	=21	=21	=21
1I	E-:maj	8G	Pa-	2r	.	2g]	_	.	34.091	.	voice
.	.	4B-	-sa-	.	.	.	.	.	.	.	.
.	.	[8c	-de	.	.	.	.	(A	.	.	.
.	.	8c]	_	4r	.	4r	.	.	.	.	.
.	.	8B-	na	.	.	.	.	a)	.	.	.
.	.	4r	.	8r	.	4e-	Ooh!	.	.	.	.
.	.	.	.	8c	She	.	.	.	.	.	.
=22	=22	=22	=22	=22	=22	=22	=22	=22	=22	=22	=22
1IV	A-:maj	1r	.	4E- 4A- 4c	drives	[1ee-	_	.	35.724	newline	voice
.	.	.	.	8D- 8A- 8c	re-	.	.	.	.	.	.
.	.	.	.	8D- 8A- 8c	-al	.	.	.	.	.	.
.	.	.	.	4C 4A- 4c	fast	.	.	.	.	.	.
.	.	.	.	8BB- 8G 8B-	and	.	.	.	.	.	.
.	.	.	.	8BB- 8G 8B-	she	.	.	.	.	.	.
=23	=23	=23	=23	=23	=23	=23	=23	=23	=23	=23	=23
*	*	*clefC3	*	*	*	*	*	*	*	*	*
1IV	A-:maj	2r	.	6C 6A- 6c 6e-	drives	4ee-]	_	.	37.36	.	voice
.	.	.	.	8Cq 8A-q 8cq 8e-q	_	.	.	.	.	.	.
.	.	.	.	6BB- 6G 6B- 6d-	real	.	.	.	.	.	.
.	.	.	.	.	.	4cc	_	.	.	.	.
.	.	.	.	6C 6A- 6c 6e-	hard	.	.	C	.	.	.
.	.	8r	.	2r	.	4ff	_	.	.	.	.
.	.	4B-	She's	.	.	.	.	.	.	.	.
.	.	.	.	.	.	4ee-	_	.	.	.	.
.	.	8B-	the	.	.	.	.	.	.	.	.
=24	=24	=24	=24	=24	=24	=24	=24	=24	=24	=24	=24
1I	E-:maj	8c	ter-	1r	.	[1b-	_	.	38.996	.	voice
.	.	8c	-ror	.	.	.	.	.	.	.	.
.	.	4B-	of	.	.	.	.	.	.	.	.
.	.	8G	Co-	.	.	.	.	.	.	.	.
.	.	8F	-lo-	.	.	.	.	.	.	.	.
.	.	8E-	-ra-	.	.	.	.	.	.	.	.
.	.	8F	-do	.	.	.	.	.	.	.	.
=25	=25	=25	=25	=25	=25	=25	=25	=25	=25	=25	=25
1I	E-:maj	8G	Bou-	2r	.	1b-]	_	.	40.632	.	voice
.	.	4F	-le-	.	.	.	.	.	.	.	.
.	.	[8E-	-vard!	.	.	.	.	C	.	.	.
.	.	8E-]	_	8r	.	.	.	.	.	.	.
.	.	4b-	It's	4E- 4B- 4e-	It's	.	.	.	.	.	.
.	.	8b-	the	8E- 8B- 8e-	the	.	.	.	.	.	.
=26	=26	=26	=26	=26	=26	=26	=26	=26	=26	=26	=26
1-III	G-:maj	8b-	lit-	8G- 8B- 8d-	lit-	1r	.	.	42.268	newline	voice
.	.	8b-	-tle	8G- 8B- 8d-	-tle	.	.	.	.	.	.
.	.	4b-	old	4F 4A- 4d-	old	.	.	.	.	.	.
.	.	8b-	la-	8E- 8G- 8d-	la-	.	.	.	.	.	.
.	.	8b-	-dy	8E- 8G- 8d-	-dy	.	.	.	.	.	.
.	.	4b-	from	4D- 4G- 4d-	from	.	.	.	.	.	.
=27	=27	=27	=27	=27	=27	=27	=27	=27	=27	=27	=27
1V	B-:maj	6b-	Pa-	6BB- 6F 6d	Pa-	1r	.	.	43.928	.	voice
.	.	6b-	-sa-	6BB- 6F 6d	-sa-	.	.	.	.	.	.
.	.	8b-q	_	8BB-q 8Fq 8dq	_	.	.	.	.	.	.
.	.	[6cc	-de	[6C [6G [6e-	-de	.	.	(A	.	.	.
.	.	8cc]	_	8C] 8G] 8e-]	_	.	.	.	.	.	.
.	.	[4.b-	na	[4.BB- [4.F [4.d	na	.	.	a)	.	.	.
=28	=28	=28	=28	=28	=28	=28	=28	=28	=28	=28	=28
1V	B-:maj	1b-_	_	1BB-_ 1F_ 1d_	_	1r	.	.	45.587	.	voice
=29	=29	=29	=29	=29	=29	=29	=29	=29	=29	=29	=29
1V	B-:maj	2b-]	_	2BB-] 2F] 2d]	_	1r	.	.	47.247	.	voice
.	.	8r	.	2r	.	.	.	.	.	.	.
.	.	4G	If	.	.	.	.	.	.	.	.
.	.	8F	you	.	.	.	.	.	.	.	.
=30	=30	=30	=30	=30	=30	=30	=30	=30	=30	=30	=30
*>Letter>B	*>Letter>B	*>Letter>B	*>Letter>B	*>Letter>B	*>Letter>B	*>Letter>B	*>Letter>B	*>Letter>B	*>Letter>B	*>Letter>B	*>Letter>B
*>Label>Verse	*>Label>Verse	*>Label>Verse	*>Label>Verse	*>Label>Verse	*>Label>Verse	*>Label>Verse	*>Label>Verse	*>Label>Verse	*>Label>Verse	*>Label>Verse	*>Label>Verse
1I	E-:maj	8E-	see	1r	.	1r	.	.	48.907	newline	voice
.	.	8E-	her	.	.	.	.	.	.	.	.
.	.	8F	on	.	.	.	.	.	.	.	.
.	.	8F	the	.	.	.	.	.	.	.	.
.	.	4G	street,	.	.	.	.	.	.	.	.
.	.	4B-	don't	.	.	.	.	.	.	.	.
=31	=31	=31	=31	=31	=31	=31	=31	=31	=31	=31	=31
1I	E-:maj	8d-	try	1r	.	1r	.	.	50.583	.	voice
.	.	4c	to	.	.	.	.	.	.	.	.
.	.	[4G	choose	.	.	.	.	D	.	.	.
.	.	8G]	_	.	.	.	.	.	.	.	.
.	.	4B-	her!	.	.	.	.	.	.	.	.
=32	=32	=32	=32	=32	=32	=32	=32	=32	=32	=32	=32
1I	E-:maj	1r	.	4E- 4G 4B-	Go,	1r	.	.	52.26	.	voice
.	.	.	.	8E- 8G 8B-	gran-	.	.	.	.	.	.
.	.	.	.	8E- 8G 8B-	-ny,	.	.	.	.	.	.
.	.	.	.	4E- 4G 4B-	go,	.	.	.	.	.	.
.	.	.	.	8E- 8G 8B-	gran-	.	.	.	.	.	.
.	.	.	.	8E- 8G 8B-	-ny,	.	.	.	.	.	.
=33	=33	=33	=33	=33	=33	=33	=33	=33	=33	=33	=33
4.IV	A-:maj	2r	.	8E- 8A- 8c	go	1r	.	.	53.936	.	voice
.	.	.	.	8E- 8A- 8c	gran-	.	.	.	.	.	.
.	.	.	.	8E- 8A- 8c	-ny	.	.	.	.	.	.
8%5I	E-:maj	.	.	[8E- [8G [8B-	go	.	.	.	54.774	.	voice
.	.	8r	.	8E-] 8G] 8B-]	_	.	.	.	.	.	.
.	.	4r	.	8r	.	.	.	.	.	.	.
.	.	.	.	4r	.	.	.	.	.	.	.
.	.	8F	You	.	.	.	.	.	.	.	.
=34	=34	=34	=34	=34	=34	=34	=34	=34	=34	=34	=34
1I	E-:maj	4E-	might	1r	.	1r	.	.	55.612	newline	voice
.	.	8F	drive	.	.	.	.	.	.	.	.
.	.	8F	a	.	.	.	.	.	.	.	.
.	.	8G	go-	.	.	.	.	.	.	.	.
.	.	8G	-er	.	.	.	.	.	.	.	.
.	.	8B-	but	.	.	.	.	.	.	.	.
.	.	8B-	you'll	.	.	.	.	.	.	.	.
=35	=35	=35	=35	=35	=35	=35	=35	=35	=35	=35	=35
1I	E-:maj	8d-	ne-	1r	.	1r	.	.	57.246	.	voice
.	.	4c	-ver	.	.	.	.	.	.	.	.
.	.	[8G	lose	.	.	.	.	D	.	.	.
.	.	8G]	_	.	.	.	.	.	.	.	.
.	.	[4.B-	her	.	.	.	.	.	.	.	.
=36	=36	=36	=36	=36	=36	=36	=36	=36	=36	=36	=36
1V7	B-:7	4B-]	_	4D 4F 4B-	Go,	1r	.	.	58.88	.	voice
.	.	4r	.	8D 8F 8B-	gran-	.	.	.	.	.	.
.	.	.	.	8D 8F 8B-	-ny,	.	.	.	.	.	.
.	.	2r	.	4D 4F 4B-	go,	.	.	.	.	.	.
.	.	.	.	8D 8F 8B-	gran-	.	.	.	.	.	.
.	.	.	.	8D 8F 8B-	-ny,	.	.	.	.	.	.
=37	=37	=37	=37	=37	=37	=37	=37	=37	=37	=37	=37
4.II	F:maj	2r	.	8C 8F 8A	go	1r	.	.	60.514	.	voice
.	.	.	.	8C 8F 8A	gran-	.	.	.	.	.	.
.	.	.	.	8C 8F 8A	-ny	.	.	.	.	.	.
8%5V7	B-:7	.	.	[8BB- [8F [8B-	go	.	.	.	61.331	.	voice
.	.	8r	.	8BB-] 8F] 8B-]	_	.	.	.	.	.	.
.	.	4B-	Well,	8r	.	.	.	.	.	.	.
.	.	.	.	4r	.	.	.	.	.	.	.
.	.	8B-	she's	.	.	.	.	.	.	.	.
=38	=38	=38	=38	=38	=38	=38	=38	=38	=38	=38	=38
1I	E-:maj	8B-	gon-	1r	.	1r	.	.	62.148	newline	voice
.	.	8B-	-na	.	.	.	.	.	.	.	.
.	.	8B-	get	.	.	.	.	.	.	.	.
.	.	8B-	a	.	.	.	.	.	.	.	.
.	.	8e-	tic-	.	.	.	.	.	.	.	.
.	.	8~d	-ket	.	.	.	.	.	.	.	.
.	.	4~d-	soo	.	.	.	.	.	.	.	.
=39	=39	=39	=39	=39	=39	=39	=39	=39	=39	=39	=39
1IV	A-:maj	8c	_	1r	.	1r	.	.	63.814	.	voice
.	.	8c	ner	.	.	.	.	.	.	.	.
.	.	8A-	or	.	.	.	.	(e	.	.	.
.	.	[8A-	la	.	.	.	.	E	.	.	.
.	.	8A-]	_	.	.	.	.	.	.	.	.
.	.	8A-	ter	.	.	.	.	e)	.	.	.
.	.	8A-	cuz	.	.	.	.	.	.	.	.
.	.	8A-	she	.	.	.	.	.	.	.	.
=40	=40	=40	=40	=40	=40	=40	=40	=40	=40	=40	=40
2II	F:maj	4c	can't	4A- 4f	can't	1r	.	.	65.48	.	voice
.	.	8c	keep	8A- 8f	keep	.	.	.	.	.	.
.	.	8c	her	8A- 8f	her	.	.	.	.	.	.
2-VII	D-:maj	8d-	foot	8A- 8e-	foot	.	.	.	66.313	.	voice
.	.	8d-	off	8A- 8e-	off	.	.	.	.	.	.
.	.	8d-	the	8A- 8e-	the	.	.	.	.	.	.
.	.	8d-	ac-	8A- 8e-	ac-	.	.	.	.	.	.
=41	=41	=41	=41	=41	=41	=41	=41	=41	=41	=41	=41
1V7	B-:7	8B-	-ce-	8F 8d	-ce-	1r	.	.	67.146	.	voice
.	.	8B-	-le-	8F 8d	-le-	.	.	(e	.	.	.
.	.	4c	-ra-	4F 4e-	-ra-	.	.	E	.	.	.
.	.	[2B-	-tor	[2F [2d	-tor	.	.	e)	.	.	.
=42	=42	=42	=42	=42	=42	=42	=42	=42	=42	=42	=42
1V7	B-:7	2B-]	_	2F] 2d]	_	2r	.	.	68.812	.	voice
*	*	*clefF4	*	*	*	*	*	*	*	*	*
.	.	4r	.	2r	.	4r	.	.	.	.	.
.	.	8r	.	.	.	4B-	Ooh	.	.	.	.
.	.	8BB-	And	.	.	.	.	.	.	.	.
=43	=43	=43	=43	=43	=43	=43	=43	=43	=43	=43	=43
*>Letter>A	*>Letter>A	*>Letter>A	*>Letter>A	*>Letter>A	*>Letter>A	*>Letter>A	*>Letter>A	*>Letter>A	*>Letter>A	*>Letter>A	*>Letter>A
*>Label>Chorus	*>Label>Chorus	*>Label>Chorus	*>Label>Chorus	*>Label>Chorus	*>Label>Chorus	*>Label>Chorus	*>Label>Chorus	*>Label>Chorus	*>Label>Chorus	*>Label>Chorus	*>Label>Chorus
1I	E-:maj	8E-	ev-	1r	.	[1b-	_	.	70.478	newline	voice
.	.	8E-	-'ry-	.	.	.	.	.	.	.	.
.	.	8C	-bo-	.	.	.	.	.	.	.	.
.	.	8BB-	-dy's	.	.	.	.	.	.	.	.
.	.	8E-	sa-	.	.	.	.	.	.	.	.
.	.	8E-	-yin'	.	.	.	.	.	.	.	.
.	.	8C	that	.	.	.	.	.	.	.	.
.	.	8BB-	there's	.	.	.	.	.	.	.	.
=44	=44	=44	=44	=44	=44	=44	=44	=44	=44	=44	=44
1I	E-:maj	8G	no-	1r	.	4b-]	_	.	72.127	.	voice
.	.	8G	-bo-	.	.	.	.	.	.	.	.
.	.	8B-	-dy	.	.	4cc	_	.	.	.	.
.	.	8B-q	_	.	.	.	.	.	.	.	.
.	.	[8c	mea	.	.	.	.	(A	.	.	.
.	.	8c]	_	.	.	4b-	_	.	.	.	.
.	.	8B-	ner	.	.	.	.	a)	.	.	.
.	.	8G	than	.	.	4e-	_	.	.	.	.
.	.	8F	the	.	.	.	.	.	.	.	.
=45	=45	=45	=45	=45	=45	=45	=45	=45	=45	=45	=45
1I	E-:maj	8E-	lit-	1r	.	[1g	_	.	73.776	.	voice
.	.	8E-	-tle	.	.	.	.	.	.	.	.
.	.	8C	old	.	.	.	.	.	.	.	.
.	.	8BB-	_	.	.	.	.	.	.	.	.
.	.	8E-	la-	.	.	.	.	.	.	.	.
.	.	8E-	-dy	.	.	.	.	.	.	.	.
.	.	4F	from	.	.	.	.	.	.	.	.
=46	=46	=46	=46	=46	=46	=46	=46	=46	=46	=46	=46
1I	E-:maj	8G	Pa-	2r	.	2g]	_	.	75.424	.	voice
.	.	4B-	-sa-	.	.	.	.	.	.	.	.
.	.	[8c	-de	.	.	.	.	(A	.	.	.
.	.	8c]	_	4r	.	4r	.	.	.	.	.
.	.	8B-	na	.	.	.	.	a)	.	.	.
.	.	4r	.	8r	.	4e-	Ooh!	.	.	.	.
.	.	.	.	8c	She	.	.	.	.	.	.
=47	=47	=47	=47	=47	=47	=47	=47	=47	=47	=47	=47
1IV	A-:maj	1r	.	4E- 4A- 4c	drives	[1ee-	_	.	77.073	newline	voice
.	.	.	.	8D- 8A- 8c	re-	.	.	.	.	.	.
.	.	.	.	8D- 8A- 8c	-al	.	.	.	.	.	.
.	.	.	.	4C 4A- 4c	fast	.	.	.	.	.	.
.	.	.	.	8BB- 8G 8B-	and	.	.	.	.	.	.
.	.	.	.	8BB- 8G 8B-	she	.	.	.	.	.	.
=48	=48	=48	=48	=48	=48	=48	=48	=48	=48	=48	=48
*	*	*clefC3	*	*	*	*	*	*	*	*	*
1IV	A-:maj	2r	.	6C 6A- 6c 6e-	drives	4ee-]	_	.	78.704	.	voice
.	.	.	.	8Cq 8A-q 8cq 8e-q	_	.	.	.	.	.	.
.	.	.	.	6BB- 6G 6B- 6d-	real	.	.	.	.	.	.
.	.	.	.	.	.	4cc	_	.	.	.	.
.	.	.	.	6C 6A- 6c 6e-	hard	.	.	C	.	.	.
.	.	8r	.	2r	.	4ff	_	.	.	.	.
.	.	4B-	She's	.	.	.	.	.	.	.	.
.	.	.	.	.	.	4ee-	_	.	.	.	.
.	.	8B-	the	.	.	.	.	.	.	.	.
=49	=49	=49	=49	=49	=49	=49	=49	=49	=49	=49	=49
1I	E-:maj	8c	ter-	1r	.	[1b-	_	.	80.335	.	voice
.	.	8c	-ror	.	.	.	.	.	.	.	.
.	.	4B-	of	.	.	.	.	.	.	.	.
.	.	8G	Co-	.	.	.	.	.	.	.	.
.	.	8F	-lo-	.	.	.	.	.	.	.	.
.	.	8E-	-ra-	.	.	.	.	.	.	.	.
.	.	8F	-do	.	.	.	.	.	.	.	.
=50	=50	=50	=50	=50	=50	=50	=50	=50	=50	=50	=50
1I	E-:maj	8G	Bou-	2r	.	1b-]	_	.	81.966	.	voice
.	.	4F	-le-	.	.	.	.	.	.	.	.
.	.	[8E-	-vard!	.	.	.	.	C	.	.	.
.	.	8E-]	_	8r	.	.	.	.	.	.	.
.	.	4b-	It's	4E- 4B- 4e-	It's	.	.	.	.	.	.
.	.	8b-	the	8E- 8B- 8e-	the	.	.	.	.	.	.
=51	=51	=51	=51	=51	=51	=51	=51	=51	=51	=51	=51
1-III	G-:maj	8b-	lit-	8G- 8B- 8d-	lit-	1r	.	.	83.598	newline	voice
.	.	8b-	-tle	8G- 8B- 8d-	-tle	.	.	.	.	.	.
.	.	4b-	old	4F 4A- 4d-	old	.	.	.	.	.	.
.	.	8b-	la-	8E- 8G- 8d-	la-	.	.	.	.	.	.
.	.	8b-	-dy	8E- 8G- 8d-	-dy	.	.	.	.	.	.
.	.	4b-	from	4D- 4G- 4d-	from	.	.	.	.	.	.
=52	=52	=52	=52	=52	=52	=52	=52	=52	=52	=52	=52
1V	B-:maj	6b-	Pa-	6BB- 6F 6d	Pa-	1r	.	.	85.265	.	voice
.	.	6b-	-sa-	6BB- 6F 6d	-sa-	.	.	.	.	.	.
.	.	8b-q	_	8BB-q 8Fq 8dq	_	.	.	.	.	.	.
.	.	[6cc	-de	[6C [6G [6e-	-de	.	.	.	.	.	.
.	.	8cc]	_	8C] 8G] 8e-]	_	.	.	.	.	.	.
.	.	[4.b-	na	[4.BB- [4.F [4.d	na	.	.	.	.	.	.
=53	=53	=53	=53	=53	=53	=53	=53	=53	=53	=53	=53
1V	B-:maj	1b-]	_	1BB-] 1F] 1d]	_	1r	.	.	86.933	.	voice
=54	=54	=54	=54	=54	=54	=54	=54	=54	=54	=54	=54
1#IV	A:maj	2a	_	2AA 2E 2c#	_	1r	.	.	88.6	.	voice
.	.	2r	.	2r	.	.	.	.	.	.	.
=55	=55	=55	=55	=55	=55	=55	=55	=55	=55	=55	=55
*>Letter>B2	*>Letter>B2	*>Letter>B2	*>Letter>B2	*>Letter>B2	*>Letter>B2	*>Letter>B2	*>Letter>B2	*>Letter>B2	*>Letter>B2	*>Letter>B2	*>Letter>B2
*>Label>Verse	*>Label>Verse	*>Label>Verse	*>Label>Verse	*>Label>Verse	*>Label>Verse	*>Label>Verse	*>Label>Verse	*>Label>Verse	*>Label>Verse	*>Label>Verse	*>Label>Verse
*F:	*F:	*F:	*	*F:	*	*F:	*	*	*F:	*F:	*F:
1I	F:maj	1r	.	1r	.	1r	.	.	90.268	newline	harmonica
=56	=56	=56	=56	=56	=56	=56	=56	=56	=56	=56	=56
1I	F:maj	1r	.	1r	.	1r	.	.	91.93	.	harmonica
=57	=57	=57	=57	=57	=57	=57	=57	=57	=57	=57	=57
1I	F:maj	1r	.	4F 4A 4c	Go,	1r	.	.	93.592	.	harmonica
.	.	.	.	8F 8A 8c	gran-	.	.	.	.	.	.
.	.	.	.	8F 8A 8c	-ny,	.	.	.	.	.	.
.	.	.	.	4F 4A 4c	go,	.	.	.	.	.	.
.	.	.	.	8F 8A 8c	gran-	.	.	.	.	.	.
.	.	.	.	8F 8A 8c	-ny,	.	.	.	.	.	.
=58	=58	=58	=58	=58	=58	=58	=58	=58	=58	=58	=58
4.IV	B-:maj	1r	.	8F 8B- 8d	go	1r	.	.	95.254	.	harmonica
.	.	.	.	8F 8B- 8d	gran-	.	.	.	.	.	.
.	.	.	.	8F 8B- 8d	-ny	.	.	.	.	.	.
8%5I	F:maj	.	.	[8F [8A [8c	go	.	.	.	96.085	.	harmonica
.	.	.	.	8F] 8A] 8c]	_	.	.	.	.	.	.
.	.	.	.	8r	.	.	.	.	.	.	.
.	.	.	.	4r	.	.	.	.	.	.	.
=59	=59	=59	=59	=59	=59	=59	=59	=59	=59	=59	=59
1I	F:maj	1r	.	1r	.	1r	.	.	96.916	newline	harmonica
=60	=60	=60	=60	=60	=60	=60	=60	=60	=60	=60	=60
1I	F:maj	1r	.	1r	.	1r	.	.	98.538	.	harmonica
=61	=61	=61	=61	=61	=61	=61	=61	=61	=61	=61	=61
1V7	C:7	1r	.	4E 4G 4c	Go,	1r	.	.	100.16	.	harmonica
.	.	.	.	8E 8G 8c	gran-	.	.	.	.	.	.
.	.	.	.	8E 8G 8c	-ny,	.	.	.	.	.	.
.	.	.	.	4E 4G 4c	go,	.	.	.	.	.	.
.	.	.	.	8E 8G 8c	gran-	.	.	.	.	.	.
.	.	.	.	8E 8G 8c	-ny,	.	.	.	.	.	.
=62	=62	=62	=62	=62	=62	=62	=62	=62	=62	=62	=62
4.II	G:maj	2r	.	8D 8G 8B	go	1r	.	.	101.782	.	harmonica
.	.	.	.	8D 8G 8B	gran-	.	.	.	.	.	.
.	.	.	.	8D 8G 8B	-ny	.	.	.	.	.	.
8%5V7	C:7	.	.	[8C [8G [8c	go	.	.	.	102.593	.	harmonica
.	.	4r	.	8C] 8G] 8c]	_	.	.	.	.	.	.
.	.	.	.	8r	.	.	.	.	.	.	.
.	.	8r	.	4r	.	.	.	.	.	.	.
.	.	8B#	The	.	.	.	.	.	.	.	.
=63	=63	=63	=63	=63	=63	=63	=63	=63	=63	=63	=63
1I	F:maj	4c	guys	1r	.	1r	.	.	103.404	newline	voice
.	.	8c	come	.	.	.	.	.	.	.	.
.	.	8c	to	.	.	.	.	.	.	.	.
.	.	8f	race	.	.	.	.	.	.	.	.
.	.	8e	her	.	.	.	.	.	.	.	.
.	.	4e	from	.	.	.	.	.	.	.	.
=64	=64	=64	=64	=64	=64	=64	=64	=64	=64	=64	=64
1IV	B-:maj	4d	miles	1r	.	1r	.	.	105.06	.	voice
.	.	8B-	a-	.	.	.	.	.	.	.	.
.	.	[8B-	-round,	.	.	.	.	F	.	.	.
.	.	8B-]	_	.	.	.	.	.	.	.	.
.	.	4B-	but	.	.	.	.	.	.	.	.
.	.	8B-	she'll	.	.	.	.	.	.	.	.
=65	=65	=65	=65	=65	=65	=65	=65	=65	=65	=65	=65
2II	G:maj	8d	give	8B- 8g	give	1r	.	.	106.715	.	voice
.	.	8d	them	8B- 8g	them	.	.	.	.	.	.
.	.	8d	a	8B- 8g	a	.	.	.	.	.	.
.	.	[8e-	length,	[8B- [8f	length,	.	.	.	.	.	.
2-VII	E-:maj	8e-]	_	8B-] 8f]	_	.	.	.	107.543	.	voice
.	.	4e-	then	4B- 4f	then	.	.	.	.	.	.
.	.	8e-	she'll	8B- 8f	she'll	.	.	.	.	.	.
=66	=66	=66	=66	=66	=66	=66	=66	=66	=66	=66	=66
1V7	C:7	8c	shut	8G 8e	shut	1r	.	.	108.371	.	voice
.	.	8c	them	[8G 8e	them	.	.	.	.	.	.
.	.	8d	_	8G] 8f	_	.	.	.	.	.	.
.	.	[8c	down	[8G [8e	down	.	.	F	.	.	.
.	.	2c_	_	2G_ 2e_	down	.	.	.	.	.	.
=67	=67	=67	=67	=67	=67	=67	=67	=67	=67	=67	=67
1V7	C:7	4.c]	_	4.G] 4.e]	_	2r	.	.	110.027	.	voice
.	.	8r	.	8r	.	.	.	.	.	.	.
*	*	*clefF4	*	*	*	*	*	*	*	*	*
.	.	4r	.	2r	.	4r	.	.	.	.	.
.	.	8r	.	.	.	4c	Ooh	.	.	.	.
.	.	8C	_	.	.	.	.	.	.	.	.
=68	=68	=68	=68	=68	=68	=68	=68	=68	=68	=68	=68
*>Letter>A2	*>Letter>A2	*>Letter>A2	*>Letter>A2	*>Letter>A2	*>Letter>A2	*>Letter>A2	*>Letter>A2	*>Letter>A2	*>Letter>A2	*>Letter>A2	*>Letter>A2
*>Label>Chorus	*>Label>Chorus	*>Label>Chorus	*>Label>Chorus	*>Label>Chorus	*>Label>Chorus	*>Label>Chorus	*>Label>Chorus	*>Label>Chorus	*>Label>Chorus	*>Label>Chorus	*>Label>Chorus
1I	F:maj	8F	ev-	1r	.	[1cc	_	.	111.682	newline	voice
.	.	8F	-'ry-	.	.	.	.	.	.	.	.
.	.	8D	-bo-	.	.	.	.	.	.	.	.
.	.	8C	-dy's	.	.	.	.	.	.	.	.
.	.	8F	sa-	.	.	.	.	.	.	.	.
.	.	8F	-yin'	.	.	.	.	.	.	.	.
.	.	8D	that	.	.	.	.	.	.	.	.
.	.	8C	there's	.	.	.	.	.	.	.	.
=69	=69	=69	=69	=69	=69	=69	=69	=69	=69	=69	=69
1I	F:maj	8A	no-	1r	.	4cc]	_	.	113.328	.	voice
.	.	8A	-bo-	.	.	.	.	.	.	.	.
.	.	8c	-dy	.	.	4dd	_	.	.	.	.
.	.	8cq	_	.	.	.	.	.	.	.	.
.	.	[8d	mea	.	.	.	.	(A	.	.	.
.	.	8d]	_	.	.	4cc	_	.	.	.	.
.	.	8c	ner	.	.	.	.	a)	.	.	.
.	.	8A	than	.	.	4f	_	.	.	.	.
.	.	8G	the	.	.	.	.	.	.	.	.
=70	=70	=70	=70	=70	=70	=70	=70	=70	=70	=70	=70
1I	F:maj	8F	lit-	1r	.	[1a	_	.	114.975	.	voice
.	.	8F	-tle	.	.	.	.	.	.	.	.
.	.	8D	old	.	.	.	.	.	.	.	.
.	.	8C	_	.	.	.	.	.	.	.	.
.	.	8F	la-	.	.	.	.	.	.	.	.
.	.	8F	-dy	.	.	.	.	.	.	.	.
.	.	4G	from	.	.	.	.	.	.	.	.
=71	=71	=71	=71	=71	=71	=71	=71	=71	=71	=71	=71
1I	F:maj	8A	Pa-	2r	.	2a]	_	.	116.621	.	voice
.	.	4c	-sa-	.	.	.	.	.	.	.	.
.	.	[8d	-de	.	.	.	.	(A	.	.	.
.	.	8d]	_	4r	.	4r	.	.	.	.	.
.	.	8c	na	.	.	.	.	a)	.	.	.
.	.	4r	.	8r	.	4f	Ooh!	.	.	.	.
.	.	.	.	8d	She	.	.	.	.	.	.
=72	=72	=72	=72	=72	=72	=72	=72	=72	=72	=72	=72
1IV	B-:maj	1r	.	4F 4B- 4d	drives	[1ff	_	.	118.267	newline	voice
.	.	.	.	8~E- 8B- 8d	re-	.	.	.	.	.	.
.	.	.	.	8E- 8B- 8d	-al	.	.	.	.	.	.
.	.	.	.	4D 4B- 4d	fast	.	.	.	.	.	.
.	.	.	.	8C 8A 8c	and	.	.	.	.	.	.
.	.	.	.	8C 8A 8c	she	.	.	.	.	.	.
=73	=73	=73	=73	=73	=73	=73	=73	=73	=73	=73	=73
*	*	*clefC3	*	*	*	*	*	*	*	*	*
1IV	B-:maj	2r	.	6BB- 6B- 6d 6f	drives	4ff]	_	.	119.91	.	voice
.	.	.	.	8Dq 8B-q 8dq 8fq	_	.	.	.	.	.	.
.	.	.	.	6C 6A 6c 6e-	real	.	.	.	.	.	.
.	.	.	.	.	.	4dd	_	.	.	.	.
.	.	.	.	6D 6B- 6d 6f	hard	.	.	C	.	.	.
.	.	8r	.	2r	.	4gg	_	.	.	.	.
.	.	4c	She's	.	.	.	.	.	.	.	.
.	.	.	.	.	.	4ff	_	.	.	.	.
.	.	8c	the	.	.	.	.	.	.	.	.
=74	=74	=74	=74	=74	=74	=74	=74	=74	=74	=74	=74
1I	F:maj	8d	ter-	1r	.	[1cc	_	.	121.552	.	voice
.	.	8d	-ror	.	.	.	.	.	.	.	.
.	.	4c	of	.	.	.	.	.	.	.	.
.	.	8A	Co-	.	.	.	.	.	.	.	.
.	.	8G	-lo-	.	.	.	.	.	.	.	.
.	.	8F	-ra-	.	.	.	.	.	.	.	.
.	.	8G	-do	.	.	.	.	.	.	.	.
=75	=75	=75	=75	=75	=75	=75	=75	=75	=75	=75	=75
1I	F:maj	8A	Bou-	1r	.	1cc]	_	.	123.195	.	voice
.	.	4G	-le-	.	.	.	.	.	.	.	.
.	.	[8F	-vard!	.	.	.	.	C	.	.	.
.	.	8F]	_	.	.	.	.	.	.	.	.
.	.	4cc	It's	.	.	.	.	.	.	.	.
.	.	8cc	the	.	.	.	.	.	.	.	.
=76	=76	=76	=76	=76	=76	=76	=76	=76	=76	=76	=76
1-III	A-:maj	8cc	lit-	8A- 8c 8e-	lit-	1r	.	.	124.837	newline	voice
.	.	8cc	-tle	8A- 8c 8e-	-tle	.	.	.	.	.	.
.	.	4cc	old	4G 4B- 4e-	old	.	.	.	.	.	.
.	.	8cc	la-	8F 8A- 8e	la-	.	.	.	.	.	.
.	.	8cc	-dy	8F 8A- 8e	-dy	.	.	.	.	.	.
.	.	4cc	from	4E 4A- 4e	from	.	.	.	.	.	.
=77	=77	=77	=77	=77	=77	=77	=77	=77	=77	=77	=77
*	*	*D-:	*	*D-:	*	*D-:	*	*	*	*	*
1-VI	D-:maj	6dd-	Pa-	6D- 6A- 6f	Pa-	1r	.	.	126.449	.	voice
.	.	6dd-	-sa-	6D- 6A- 6f	-sa-	.	.	.	.	.	.
.	.	8dd-q	_	8D-q 8A-q 8fq	_	.	.	.	.	.	.
.	.	[6ee-	-de	[6E- [6B- [6g-	-de	.	.	.	.	.	.
.	.	8ee-]	_	8E-] 8B-] 8g-]	_	.	.	.	.	.	.
.	.	[4.dd-	na	[4.D- [4.A- [4.f	na	.	.	.	.	.	.
=78	=78	=78	=78	=78	=78	=78	=78	=78	=78	=78	=78
1-VI	D-:maj	2.dd-_	_	4D-] 4A-] 4f]	_	1r	.	.	128.06	.	voice
.	.	.	.	4r	.	.	.	.	.	.	.
.	.	.	.	2r	.	.	.	.	.	.	.
.	.	8dd-]	_	.	.	.	.	.	.	.	.
.	.	8r	.	.	.	.	.	.	.	.	.
=79	=79	=79	=79	=79	=79	=79	=79	=79	=79	=79	=79
*>Letter>B3	*>Letter>B3	*>Letter>B3	*>Letter>B3	*>Letter>B3	*>Letter>B3	*>Letter>B3	*>Letter>B3	*>Letter>B3	*>Letter>B3	*>Letter>B3	*>Letter>B3
*>Label>Outro	*>Label>Outro	*>Label>Outro	*>Label>Outro	*>Label>Outro	*>Label>Outro	*>Label>Outro	*>Label>Outro	*>Label>Outro	*>Label>Outro	*>Label>Outro	*>Label>Outro
1-VI	D-:maj	1r	.	4D- 4A- 4f	Go,	1r	.	.	129.672	newline	voice
.	.	.	.	8D- 8A- 8f	gran-	.	.	.	.	.	.
.	.	.	.	8D- 8A- 8f	-ny,	.	.	.	.	.	.
.	.	.	.	4D- 4A- 4f	go,	.	.	.	.	.	.
.	.	.	.	8D- 8A- 8f	gran-	.	.	.	.	.	.
.	.	.	.	8D- 8A- 8f	-ny,	.	.	.	.	.	.
=80	=80	=80	=80	=80	=80	=80	=80	=80	=80	=80	=80
4.-II	G-:maj	1r	.	8D- 8B- 8g-	go	1r	.	.	131.316	.	voice
.	.	.	.	8D- 8B- 8g-	gran-	.	.	.	.	.	.
.	.	.	.	8D- 8B- 8g-	-ny	.	.	.	.	.	.
8%5-VI	D-:maj	.	.	[8D- [8A- [8f	go	.	.	.	132.138	.	voice
.	.	.	.	4D-] 4A-] 4f]	_	.	.	.	.	.	.
.	.	.	.	4r	.	.	.	.	.	.	.
=81	=81	=81	=81	=81	=81	=81	=81	=81	=81	=81	=81
1-IIIm7	A-:7	1r	.	4C 4A- 4e-	Go,	1r	.	.	132.96	.	voice
.	.	.	.	8C 8A- 8e-	gran-	.	.	.	.	.	.
.	.	.	.	8C 8A- 8e-	-ny,	.	.	.	.	.	.
.	.	.	.	4C 4A- 4e-	go,	.	.	.	.	.	.
.	.	.	.	8C 8A- 8e-	gran-	.	.	.	.	.	.
.	.	.	.	8C 8A- 8e-	-ny,	.	.	.	.	.	.
=82	=82	=82	=82	=82	=82	=82	=82	=82	=82	=82	=82
4.-VII	E-:maj	1r	.	8BB- 8G 8e-	go	1r	.	.	134.605	.	voice
.	.	.	.	8BB- 8G 8e-	gran-	.	.	.	.	.	.
.	.	.	.	8BB- 8G 8e-	-ny	.	.	.	.	.	.
8%5-IIIm7	A-:7	.	.	[8C [8A- [8e-	go	.	.	.	135.427	.	voice
.	.	.	.	4C] 4A-] 4e-]	_	.	.	.	.	.	.
.	.	.	.	4r	.	.	.	.	.	.	.
=83	=83	=83	=83	=83	=83	=83	=83	=83	=83	=83	=83
1-VI	D-:maj	1r	.	4D- 4A- 4f	Go,	1r	.	.	136.249	newline	voice
.	.	.	.	8D- 8A- 8f	gran-	.	.	.	.	.	.
.	.	.	.	8D- 8A- 8f	-ny,	.	.	.	.	.	.
.	.	.	.	4D- 4A- 4f	go,	.	.	.	.	.	.
.	.	.	.	8D- 8A- 8f	gran-	.	.	.	.	.	.
.	.	.	.	8D- 8A- 8f	-ny,	.	.	.	.	.	.
=84	=84	=84	=84	=84	=84	=84	=84	=84	=84	=84	=84
4.-II	G-:maj	1r	.	8D- 8B- 8g-	go	1r	.	.	137.875	.	voice
.	.	.	.	8D- 8B- 8g-	gran-	.	.	.	.	.	.
.	.	.	.	8D- 8B- 8g-	-ny	.	.	.	.	.	.
8%5-VI	D-:maj	.	.	[8D- [8A- [8f	go	.	.	.	138.688	.	voice
.	.	.	.	4D-] 4A-] 4f]	_	.	.	.	.	.	.
.	.	.	.	4r	.	.	.	.	.	.	.
=85	=85	=85	=85	=85	=85	=85	=85	=85	=85	=85	=85
1-IIIm7	A-:7	1r	.	4C 4A- 4e-	Go,	1r	.	.	139.502	.	voice
.	.	.	.	8C 8A- 8e-	gran-	.	.	.	.	.	.
.	.	.	.	8C 8A- 8e-	-ny,	.	.	.	.	.	.
.	.	.	.	4C 4A- 4e-	go,	.	.	.	.	.	.
.	.	.	.	8C 8A- 8e-	gran-	.	.	.	.	.	.
.	.	.	.	8C 8A- 8e-	-ny,	.	.	.	.	.	.
=86	=86	=86	=86	=86	=86	=86	=86	=86	=86	=86	=86
4.-VII	E-:maj	1r	.	8BB- 8G 8e-	go	1r	.	.	141.128	.	voice
.	.	.	.	8BB- 8G 8e-	gran-	.	.	.	.	.	.
.	.	.	.	8BB- 8G 8e-	-ny	.	.	.	.	.	.
8%5-IIIm7	A-:7	.	.	[8C [8A- [8e-	go	.	.	.	141.941	.	voice
.	.	.	.	4C] 4A-] 4e-]	_	.	.	.	.	.	.
.	.	.	.	4r	.	.	.	.	.	.	.
=87	=87	=87	=87	=87	=87	=87	=87	=87	=87	=87	=87
1-VI	D-:maj	1r	.	4D- 4A- 4f	Go,	1r	.	.	142.754	newline	voice
.	.	.	.	8D- 8A- 8f	gran-	.	.	.	.	.	.
.	.	.	.	8D- 8A- 8f	-ny,	.	.	.	.	.	.
.	.	.	.	4D- 4A- 4f	go,	.	.	.	.	.	.
.	.	.	.	8D- 8A- 8f	gran-	.	.	.	.	.	.
.	.	.	.	8D- 8A- 8f	-ny,	.	.	.	.	.	.
=88	=88	=88	=88	=88	=88	=88	=88	=88	=88	=88	=88
4.-II	G-:maj	1r	.	8D- 8B- 8g-	go	1r	.	.	144.357	.	voice
.	.	.	.	8D- 8B- 8g-	gran-	.	.	.	.	.	.
.	.	.	.	8D- 8B- 8g-	-ny	.	.	.	.	.	.
8%5-VI	D-:maj	.	.	[8D- [8A- [8f	go	.	.	.	145.158	.	voice
.	.	.	.	4D-] 4A-] 4f]	_	.	.	.	.	.	.
.	.	.	.	4r	.	.	.	.	.	.	.
=89	=89	=89	=89	=89	=89	=89	=89	=89	=89	=89	=89
1-IIIm7	A-:7	1r	.	4C 4A- 4e-	Go,	1r	.	.	145.96	.	voice
.	.	.	.	8C 8A- 8e-	gran-	.	.	.	.	.	.
.	.	.	.	8C 8A- 8e-	-ny,	.	.	.	.	.	.
.	.	.	.	4C 4A- 4e-	go,	.	.	.	.	.	.
.	.	.	.	8C 8A- 8e-	gran-	.	.	.	.	.	.
.	.	.	.	8C 8A- 8e-	-ny,	.	.	.	.	.	.
=90	=90	=90	=90	=90	=90	=90	=90	=90	=90	=90	=90
4.-VII	E-:maj	1r	.	8BB- 8G 8e-	go	1r	.	.	147.562	.	voice
.	.	.	.	8BB- 8G 8e-	gran-	.	.	.	.	.	.
.	.	.	.	8BB- 8G 8e-	-ny	.	.	.	.	.	.
8%5-IIIm7	A-:7	.	.	[8C [8A- [8e-	go	.	.	.	148.364	.	voice
.	.	.	.	4C] 4A-] 4e-]	_	.	.	.	.	.	.
.	.	.	.	4r	.	.	.	.	.	.	.
=91	=91	=91	=91	=91	=91	=91	=91	=91	=91	=91	=91
1-VI	D-:maj	1r	.	4D- 4A- 4f	Go,	1r	.	.	149.165	newline	fadeout
.	.	.	.	8D- 8A- 8f	gran-	.	.	.	.	.	.
.	.	.	.	8D- 8A- 8f	-ny,	.	.	.	.	.	.
.	.	.	.	4D- 4A- 4f	go,	.	.	.	.	.	.
.	.	.	.	8D- 8A- 8f	gran-	.	.	.	.	.	.
.	.	.	.	8D- 8A- 8f	-ny,	.	.	.	.	.	.
=92	=92	=92	=92	=92	=92	=92	=92	=92	=92	=92	=92
4.-II	G-:maj	1r	.	8D- 8B- 8g-	go	1r	.	.	150.796	.	fadeout
.	.	.	.	8D- 8B- 8g-	gran-	.	.	.	.	.	.
.	.	.	.	8D- 8B- 8g-	-ny	.	.	.	.	.	.
8%5-VI	D-:maj	.	.	[8D- [8A- [8f	go	.	.	.	151.612	.	fadeout
.	.	.	.	4D-] 4A-] 4f]	_	.	.	.	.	.	.
.	.	.	.	4r	.	.	.	.	.	.	.
=93	=93	=93	=93	=93	=93	=93	=93	=93	=93	=93	=93
1-IIIm7	A-:7	1r	.	4C 4A- 4e-	Go,	1r	.	.	152.427	.	fadeout
.	.	.	.	8C 8A- 8e-	gran-	.	.	.	.	.	.
.	.	.	.	8C 8A- 8e-	-ny,	.	.	.	.	.	.
.	.	.	.	4C 4A- 4e-	go,	.	.	.	.	.	.
.	.	.	.	8C 8A- 8e-	gran-	.	.	.	.	.	.
.	.	.	.	8C 8A- 8e-	-ny,	.	.	.	.	.	.
=94	=94	=94	=94	=94	=94	=94	=94	=94	=94	=94	=94
4.-VII	E-:maj	1r	.	8BB- 8G 8e-	go	1r	.	.	154.059	.	fadeout
.	.	.	.	8BB- 8G 8e-	gran-	.	.	.	.	.	.
.	.	.	.	8BB- 8G 8e-	-ny	.	.	.	.	.	.
8%5-IIIm7	A-:7	.	.	[8C [8A- [8e-	go	.	.	.	154.874	.	fadeout
.	.	.	.	4C] 4A-] 4e-]	_	.	.	.	.	.	.
.	.	.	.	4r	.	.	.	.	.	.	.
=95	=95	=95	=95	=95	=95	=95	=95	=95	=95	=95	=95
1-VI	D-:maj	1r	.	4D- 4A- 4f	Go,	1r	.	.	155.69	newline	fadeout
.	.	.	.	8D- 8A- 8f	gran-	.	.	.	.	.	.
.	.	.	.	8D- 8A- 8f	-ny,	.	.	.	.	.	.
.	.	.	.	4D- 4A- 4f	go,	.	.	.	.	.	.
.	.	.	.	8D- 8A- 8f	gran-	.	.	.	.	.	.
.	.	.	.	8D- 8A- 8f	-ny,	.	.	.	.	.	.
=96	=96	=96	=96	=96	=96	=96	=96	=96	=96	=96	=96
4.-II	G-:maj	1r	.	8D- 8B- 8g-	go	1r	.	.	157.319	.	fadeout
.	.	.	.	8D- 8B- 8g-	gran-	.	.	.	.	.	.
.	.	.	.	8D- 8B- 8g-	-ny	.	.	.	.	.	.
8%5-VI	D-:maj	.	.	[8D- [8A- [8f	go	.	.	.	158.133	.	fadeout
.	.	.	.	4D-] 4A-] 4f]	_	.	.	.	.	.	.
.	.	.	.	4r	.	.	.	.	.	.	.
=97	=97	=97	=97	=97	=97	=97	=97	=97	=97	=97	=97
1-IIIm7	A-:7	1r	.	4C 4A- 4e-	Go,	1r	.	.	158.947	.	fadeout
.	.	.	.	8C 8A- 8e-	gran-	.	.	.	.	.	.
.	.	.	.	8C 8A- 8e-	-ny,	.	.	.	.	.	.
.	.	.	.	4C 4A- 4e-	go,	.	.	.	.	.	.
.	.	.	.	8C 8A- 8e-	gran-	.	.	.	.	.	.
.	.	.	.	8C 8A- 8e-	-ny,	.	.	.	.	.	.
=98	=98	=98	=98	=98	=98	=98	=98	=98	=98	=98	=98
4.-VII	E-:maj	1r	.	8BB- 8G 8e-	go	1r	.	.	160.576	.	fadeout
.	.	.	.	8BB- 8G 8e-	gran-	.	.	.	.	.	.
.	.	.	.	8BB- 8G 8e-	-ny	.	.	.	.	.	.
8%5-IIIm7	A-:7	.	.	[8C [8A- [8e-	go	.	.	.	161.39	.	fadeout
.	.	.	.	4C] 4A-] 4e-]	_	.	.	.	.	.	.
.	.	.	.	4r	.	.	.	.	.	.	.
=99	=99	=99	=99	=99	=99	=99	=99	=99	=99	=99	=99
1-VI	D-:maj	1r	.	4D- 4A- 4f	Go,	1r	.	.	162.205	newline	voice
.	.	.	.	8D- 8A- 8f	gran-	.	.	.	.	.	.
.	.	.	.	8D- 8A- 8f	-ny,	.	.	.	.	.	.
.	.	.	.	4D- 4A- 4f	go,	.	.	.	.	.	.
.	.	.	.	8D- 8A- 8f	gran-	.	.	.	.	.	.
.	.	.	.	8D- 8A- 8f	-ny,	.	.	.	.	.	.
=100	=100	=100	=100	=100	=100	=100	=100	=100	=100	=100	=100
4.-II	G-:maj	1r	.	8D- 8B- 8g-	go	1r	.	.	163.049	.	voice
.	.	.	.	8D- 8B- 8g-	gran-	.	.	.	.	.	.
.	.	.	.	8D- 8B- 8g-	-ny	.	.	.	.	.	.
8%5-VI	D-:maj	.	.	[8D- [8A- [8f	go	.	.	.	163.471	.	voice
.	.	.	.	4D-] 4A-] 4f]	_	.	.	.	.	.	.
.	.	.	.	4r	.	.	.	.	.	.	.
=101	=101	=101	=101	=101	=101	=101	=101	=101	=101	=101	=101
1-IIIm7	A-:7	1r	.	4C 4A- 4e-	Go,	1r	.	.	163.893	.	voice
.	.	.	.	8C 8A- 8e-	gran-	.	.	.	.	.	.
.	.	.	.	8C 8A- 8e-	-ny,	.	.	.	.	.	.
.	.	.	.	4C 4A- 4e-	go,	.	.	.	.	.	.
.	.	.	.	8C 8A- 8e-	gran-	.	.	.	.	.	.
.	.	.	.	8C 8A- 8e-	-ny,	.	.	.	.	.	.
=102	=102	=102	=102	=102	=102	=102	=102	=102	=102	=102	=102
4.-VII	E-:maj	1r	.	8BB- 8G 8e-	go	1r	.	.	164.738	.	voice
.	.	.	.	8BB- 8G 8e-	gran-	.	.	.	.	.	.
.	.	.	.	8BB- 8G 8e-	-ny	.	.	.	.	.	.
8%5-IIIm7	A-:7	.	.	[8C [8A- [8e-	go	.	.	.	165.16	.	voice
.	.	.	.	4C] 4A-] 4e-]	_	.	.	.	.	.	.
.	.	.	.	4r	.	.	.	.	.	.	.
1r;	N	r;	.	r;	.	r;	.	.	165.582	.	r
1r;	N	r;	.	r;	.	r;	.	.	166.766	.	r
*-	*-	*-	*-	*-	*-	*-	*-	*-	*-	*-	*-
!!!BillboardChartDate: 1964/07/04
!!!BillboardPeak: 3
!!!BillboardWeeksOnChart: 11
!!!COC: Jan & Dean
!!!ENC: Nathaniel Condit-Schultz
!!!EST: Awating manual error checking and editing.
!!!OTL: The Little Old Lady (From Pasadena)
!!!RDF**harte: Chris Harte's syntax, used by MIREX
!!!RDF**harmony: **recip + pitch class of root + harmonic quality
!!!RDF**leadinstrument: original McGill primary instrumentation annotation
!!!RDF**phrase: newline = linebreak in original McGill transcription
!!!RDF**timestamp: McGill audio timestamp in seconds
!!!RDT: 2017/01/12/
!!!SampleActualRank: 22
!!!SampleID#: 0635
!!!SampleTargetRank: 21
!!!MBID: 3458e94e-792c-4893-84fa-84a0424e9fcd
